src/assets/icons/fa/stop-circle.svg

<?xml version="1.0" encoding="utf-8"?>
<svg width="1792" height="1792" viewBox="0 0 1792 1792" xmlns="http://www.w3.org/2000/svg"><path d="M1216 1184v-576q0-14-9-23t-23-9h-576q-14 0-23 9t-9 23v576q0 14 9 23t23 9h576q14 0 23-9t9-23zm448-288q0 209-103 385.5t-279.5 279.5-385.5 103-385.5-103-279.5-279.5-103-385.5 103-385.5 279.5-279.5 385.5-103 385.5 103 279.5 279.5 103 385.5z"/></svg>

<svg width="1792" height="1792" xmlns="http://www.w3.org/2000/svg"><path d="M1216 1184V608q0-14-9-23t-23-9H608q-14 0-23 9t-9 23v576q0 14 9 23t23 9h576q14 0 23-9t9-23zm448-288q0 209-103 385.5T1281.5 1561 896 1664t-385.5-103T231 1281.5 128 896t103-385.5T510.5 231 896 128t385.5 103T1561 510.5 1664 896z"/></svg>
